X:1
T:Andiann'a premer
T:Antonio Cifra
T:Source : Le diversi Scherzi a uno, a due et tre voci---Libro secondo---Roma---G.B.Robletti---1613. Editor : André Vierendeels (12/11/16).
T:Notes : Original clefs : C1, C1, F4, F4 Editorial accidentals abve the staff Figures in BC are notated in original print
T:Romano
T:Andiann'a premer
T:madrigaletto
T:©
T:©
T:©
T:©
T:©
T:©
C:Antonio Cifra
Z:©
%%score [ 1 2 3 ] 4
L:1/8
Q:1/4=99
M:4/4
K:F
V:1 treble nm="Soprano 1" snm="S 1"
V:2 treble nm="Soprano 2" snm="S 2"
V:3 bass nm="Bass" snm="B"
V:4 bass nm="MusicXML Part"
V:1
 z2 G2 B3 A | B2 c2 d4- | d2 f2 c3 B | c4 d4 | z2 G2 G3 ^F | G2 A2 B2 B2 | F2 G2 A2 B2- | %7
w: An- diann' a|pre- mer latt'|_ a co- glier|fio- ri,|an- dian' a|pre- mer latt' a|co- glier fi- o-|
 B2 A2 B4 | z2 B2 A2 G2 | GF F4 E2 | F8 | A2 A2 A4- | A4 B2 G2 | ^F4 F4 | z4 z dde | f4 z fed | %16
w: * * ri,|dis- se Tir-|si a Li- co-|ri,|al- tro latt'-|* io non|chieg- gio,|se non sol|quel che nel bel|
 c3 c c4 | ddde f4 | z dcB A3 G | G8 | F4 c2 A2 | d2 cB A4 | z4 c2 A2 | f2 ed c4 | d2 _ee d4 | %25
w: sen ti veg-|gio, se non sol quel,|che nel bel sen ti|veg-|gio, ne fior|al- tri de- sio,|ne fior|al- tri de- sio,|Tir- si ris- po-|
 c2 C2 DEFD | E4 z4 | z4 z2 A2 | ^F2 G2 A4 | G4 z2 c2 | FGAF G4 | z f d2 _e2 c2- | c2 =B2 c2 c2 | %33
w: se, che del- le lab- bre|tue|le|vi- ve ro-|se, che|del- le lab- bre tue|le v- ve ro-|* * se, che|
 FGAF G3 c | A2 F2 D4 | C4 z4 | z4 c4 | A4 B4 | A8 | G8 |] %40
w: del- le lab- bre tue le|vi- ve ro-|se,|le|vi- ve|ro-|se|
V:2
 G4 G3 F | G2 A2 B4 | B2 F2 A2 B2- | B2 A2 B4 | G4 B3 A | B2 c2 d4- | d2 d2 c2 B2 | c4 d4 | %8
w: An- diann' a|pre- mer latt'|a co- glier fi-|* o- ri,|an- diann' a|pre- mer latt'|_ a co- glier|fio- ri,|
 d4 c2 B2- | BA F2 G4 | A8 | z4 c2 c2 | c2 d4 c/B/A/G/ | A4 A4 | z BBc d4 | z dcB A4- | A2 B4 A2 | %17
w: dis- se Tir-|* s'ia Li- co-|ri,|al- tro|latt' io non _ _ _|chieg- gio,|se non sol quel|che nel bel sen|_ ti veg-|
 BBBc d4 | z BAG FFED | EC F4 E2 | F4 z4 | z4 c2 A2 | d2 cB AA F2 | A2 GF E2 A2 | =BB c4 B2 | %25
w: gio, se non sol quel|che nel bel sen, che nel bel|sen ti veg- *|gio,|ne fior|al- tri de- si- o, al-|tri de- si- o, Tir-|si ris- po- *|
 c2 c2 FGAF | G2 G2 ABcA | =B4 c2 A2 | =B2 G4 ^F2 | G4 z4 | z2 F2 EFGE | F2 z d =B2 c2 | d4 c2 C2 | %33
w: se, che del- le lab- bre|tue, che del- le lab- bre|tue le vi-|ve ro- *|se,|che del- le lab- bre|tue le vi- ve|ro- se, che|
 DEFD E4 | z2 c2 =BcdB | c2 c2 A4 | B2 B2 G3 A | ^F4 G4- | G4 ^F4 | G8 |] %40
w: del- le lab- bre tue|che del- le lab- bre|tue le vi-|ve, le vi- ve|ro- *||se.|
V:3
 z8 | z4 z2 B,2 | B,,2 D,2 F,4- | F,4 B,,4 | G,,4 G,3 D, | G,2 F,2 B,,4 | B,4 F,2 D,2 | F,4 B,,4 | %8
w: |A|co- glier fio-|* ri,|an- diann' a|pre- mer latt'|a co- glier|fio- ri,|
 B,,4 C,2 _E,2- | E,F, D,2 C,4 | F,,8 | F,2 F,2 F,4 | F,4 G,2 _E,2 | D,8 | z G,G,A, B,4 | %15
w: dis- se Tir-|* si'a Li- co-|ri,|al- tro latt'|io non chieg-|gio,|se non sol quel|
 z B,A,G, F,4- | F,2 _E,2 F,4 | B,,4 z B,,B,,C, | D,4 z D,C,B,, | C,3 B,, C,4 | F,4 A,2 F,2 | %21
w: che nel bel sen|_ ti veg-|gio, se non sol|quel che nel bel|sen ti veg-|gio, ne fior|
 B,2 A,G, F,4 | B,,4 F,4 | z2 G,2 A,4 | G,8 | z8 | z2 C2 F,G,A,F, | G,2 G,2 E,2 F,2 | D,8 | %29
w: al- tri de- sio,|Tir- si|ris- po-|se,||che del- le lab- bre|tue le vi- ve|ro-|
 G,,2 G,2 C,D,E,C, | D,4 z2 C2 | A,2 B,2 G,4- | G,4 C,4 | z4 z2 C2 | F,G,A,F, G,4 | z4 F,4 | %36
w: se, che del- le lab- bre|tue le|vi- ve ro-|* se,|che|del- le lab- bre tue|le|
 D,4 _E,4 | D,8- | D,8 | G,,8 |] %40
w: vi- ve|ro-||se.|
V:4
"^BC" G,4 G,3 D, | G,2 F,2 B,,4 | z2 D,2 F,4- | F,4 B,,4 | G,,4 G,3 D, | G,2 F,2 B,,4 | %6
 B,4 F,2 D,2 | F,4 B,,4- | B,,4 C,2 _E,2- | E,F, D,2 C,4 | F,,8 | F,8 |"^5 6""^6" F,4 G,2 _E,2 | %13
 D,8 | G,3 A, B,4 | B,B,A,G, F,4- | F,2 _E,2 F,4 | B,,4 B,,3 C, | D,4 D,D,C,B,, | C,3 B,, C,4 | %20
 F,8 | B,2 A,G, F,4 | B,,4 F,4 | z2 G,2 A,4 | G,8 | C,2 F,2 D,4 | C,4 F,4 | G,4 E,2 F,2 | D,8 | %29
 G,,4 C,4 | D,4 C,4 | A,2 B,2 G,4 | G,4 C,4 | B,,2 A,,2 C,4 | F,4 G,4 | C,4 F,4 | D,4 _E,4 | D,8 | %38
 D,8 | G,,8 |] %40

